Sources/FrostedUI/Resources/Icons.xcassets/arrowUpRightFromSquareFlush20.imageset/arrow-up-right-from-square-flush-20.svg

<svg width="20" height="20" viewBox="0 0 20 20" fill="none" xmlns="http://www.w3.org/2000/svg" data-fui-icon="true">
  <path
    d="M7.70801 2.375C8.12222 2.375 8.45801 2.71079 8.45801 3.125C8.45801 3.53921 8.12222 3.875 7.70801 3.875H5.79199C5.31291 3.875 4.99811 3.87587 4.75781 3.89551C4.52716 3.91437 4.43094 3.9467 4.37598 3.97461C4.2035 4.06249 4.06249 4.2035 3.97461 4.37598C3.9467 4.43094 3.91437 4.52716 3.89551 4.75781C3.87587 4.99811 3.875 5.31291 3.875 5.79199V14.208C3.875 14.6871 3.87587 15.0019 3.89551 15.2422C3.91437 15.4729 3.94671 15.5691 3.97461 15.624C4.06247 15.7965 4.20269 15.9376 4.375 16.0254H4.37598C4.43094 16.0533 4.52716 16.0856 4.75781 16.1045C4.99811 16.1241 5.31291 16.125 5.79199 16.125H14.208C14.6871 16.125 15.0019 16.1241 15.2422 16.1045C15.4729 16.0856 15.5691 16.0533 15.624 16.0254H15.625C15.7973 15.9376 15.9376 15.7973 16.0254 15.625L17.3613 16.3057C17.1297 16.7602 16.7602 17.1297 16.3057 17.3613C16.0041 17.515 15.6885 17.5731 15.3643 17.5996C15.0487 17.6254 14.6623 17.625 14.208 17.625H5.79199C5.33766 17.625 4.95129 17.6254 4.63574 17.5996C4.31151 17.5731 3.99589 17.515 3.69434 17.3613C3.23975 17.1297 2.8703 16.7601 2.63867 16.3057C2.48501 16.0041 2.42689 15.6885 2.40039 15.3643C2.37461 15.0487 2.375 14.6623 2.375 14.208V5.79199C2.375 5.33766 2.37461 4.95129 2.40039 4.63574C2.42689 4.31151 2.48502 3.99589 2.63867 3.69434C2.87032 3.23981 3.23981 2.87032 3.69434 2.63867C3.99589 2.48502 4.31151 2.42689 4.63574 2.40039C4.95129 2.37461 5.33766 2.375 5.79199 2.375H7.70801ZM16.875 11.542C17.2892 11.542 17.625 11.8778 17.625 12.292V14.208C17.625 14.6623 17.6254 15.0487 17.5996 15.3643C17.5731 15.6885 17.515 16.0041 17.3613 16.3057L16.0254 15.624C16.0533 15.5691 16.0856 15.4729 16.1045 15.2422C16.1241 15.0019 16.125 14.6871 16.125 14.208V12.292C16.125 11.8778 16.4608 11.542 16.875 11.542ZM16.875 2.375C17.2892 2.375 17.625 2.71079 17.625 3.125V8.54199C17.6248 8.95606 17.2891 9.29199 16.875 9.29199C16.4609 9.29199 16.1252 8.95606 16.125 8.54199V4.93555L9.69727 11.3633C9.40437 11.6562 8.92961 11.6562 8.63672 11.3633C8.34383 11.0704 8.34383 10.5956 8.63672 10.3027L15.0645 3.875H11.458C11.0439 3.87482 10.708 3.53911 10.708 3.125C10.708 2.7109 11.0439 2.37518 11.458 2.375H16.875Z"
    fill="currentColor"
  />
</svg>

<svg xmlns="http://www.w3.org/2000/svg" width="20" height="20" fill="none" data-fui-icon="true" viewBox="0 0 20 20"><path fill="currentColor" d="M7.708 2.375a.75.75 0 0 1 0 1.5H5.792c-.48 0-.794 0-1.034.02-.23.02-.327.052-.382.08a.92.92 0 0 0-.401.401c-.028.055-.06.151-.08.382-.02.24-.02.555-.02 1.034v8.416c0 .48 0 .794.02 1.034.02.23.052.327.08.382a.9.9 0 0 0 .4.401h.001c.055.028.151.06.382.08.24.02.555.02 1.034.02h8.416c.48 0 .794 0 1.034-.02.23-.02.327-.052.382-.08h.001a.9.9 0 0 0 .4-.4l1.336.68a2.4 2.4 0 0 1-1.055 1.056c-.302.154-.618.212-.942.239-.315.025-.702.025-1.156.025H5.792c-.454 0-.84 0-1.156-.025-.324-.027-.64-.085-.942-.239a2.4 2.4 0 0 1-1.055-1.055c-.154-.302-.212-.618-.239-.942-.025-.315-.025-.702-.025-1.156V5.792c0-.454 0-.84.025-1.156.027-.324.085-.64.239-.942A2.4 2.4 0 0 1 3.694 2.64c.302-.154.618-.212.942-.239.315-.025.702-.025 1.156-.025zm9.167 9.167a.75.75 0 0 1 .75.75v1.916c0 .454 0 .84-.025 1.156-.027.324-.085.64-.239.942l-1.336-.682c.028-.055.06-.151.08-.382.02-.24.02-.555.02-1.034v-1.916a.75.75 0 0 1 .75-.75m0-9.167a.75.75 0 0 1 .75.75v5.417a.75.75 0 0 1-1.5 0V4.936l-6.428 6.427a.75.75 0 1 1-1.06-1.06l6.428-6.428h-3.607a.75.75 0 0 1 0-1.5z"/></svg>
